images/svg/icons/social/foursquare_hover.svg

<?xml version="1.0" encoding="UTF-8" standalone="no"?>
<svg width="40px" height="40px" viewBox="0 0 40 40" version="1.1" xmlns="http://www.w3.org/2000/svg" xmlns:xlink="http://www.w3.org/1999/xlink">
    <!-- Generator: Sketch 39.1 (31720) - http://www.bohemiancoding.com/sketch -->
    <title>foursquare_hover</title>
    <desc>Created with Sketch.</desc>
    <defs>
        <rect id="path-1" x="-2.24519074e-15" y="-1.10200628e-15" width="40" height="40"></rect>
    </defs>
    <g id="Icons" stroke="none" stroke-width="1" fill="none" fill-rule="evenodd">
        <g id="Social-media-Icons_new" transform="translate(-77.000000, -1736.000000)">
            <g id="foursquare_hover" transform="translate(77.000000, 1736.000000)">
                <g id="bg">
                    <use fill="#17BBE1" xlink:href="#path-1"></use>
                    <use fill-opacity="0.25" fill="#000000" xlink:href="#path-1"></use>
                </g>
                <path d="M30.2379778,15.435055 C30.2447552,15.7134769 30.0685425,15.8968279 29.8923299,16.0733881 C26.7679437,19.2311 23.63678,22.382021 20.5191712,25.5465236 C20.0718621,25.994715 19.6652175,25.9811334 19.2314633,25.5397328 C17.5235558,23.8012936 15.808871,22.0696452 14.0941861,20.331206 C13.6672093,19.903387 13.7078737,19.4959403 14.1280732,19.0884936 C14.5686049,18.6606746 15.0091366,18.2328556 15.429336,17.7778735 C15.8630903,17.3093098 16.2765123,17.3228913 16.7102666,17.7710827 C17.6319944,18.7150008 18.5808319,19.6385467 19.4890049,20.6028371 C19.8075431,20.9423761 19.9837558,20.8948406 20.2887393,20.5892556 C22.5659492,18.2600187 24.8634913,15.9511541 27.1610335,13.6422896 C27.8862164,12.9088855 28.0895387,12.9156763 28.8350538,13.6626619 C29.2078114,14.0361547 29.5737916,14.4028567 29.9465492,14.7763495 C30.1227618,14.9529098 30.25831,15.1566331 30.2379778,15.435055 Z M29.2688081,18.4229974 C26.3748539,21.343032 23.4808996,24.2698573 20.5869453,27.1966827 C20.1396363,27.644874 19.7329916,27.6312925 19.2992374,27.1898919 C19.1298021,27.0201225 18.9671442,26.850353 18.797709,26.6805836 C18.7231575,26.6194666 18.648606,26.5583495 18.5808319,26.4904418 C16.7983729,24.6908856 15.0091366,22.8981201 13.2470098,21.0849824 C12.4269432,20.2361351 12.4540528,19.2039369 13.2808969,18.341508 C13.7417608,17.8661536 14.2094021,17.3975899 14.6838209,16.935817 C15.6326583,15.9986896 16.6628247,16.0258527 17.6048848,16.996934 C18.2419613,17.6488487 18.9061476,18.2736003 19.5228919,18.9458873 C19.8346528,19.2854262 20.0176429,19.2650539 20.3226263,18.9458873 C21.8136566,17.4111714 23.3250192,15.8832464 24.8567139,14.3824844 C25.1752522,14.0701086 25.188807,13.8867576 24.8634913,13.567591 C23.8265475,12.5693466 22.8302682,11.5371484 21.8068792,10.5253224 C20.6886065,9.41163482 19.2992374,9.38447171 18.1741872,10.5049501 C15.6258809,13.0514919 13.0911294,15.618406 10.5699327,18.1921109 C9.49910187,19.2854262 9.48554705,20.7114896 10.5563779,21.7980141 C13.0979068,24.3853006 15.6462131,26.9657962 18.2148517,29.5259196 C19.3127922,30.6260256 20.7563806,30.5716994 21.8543211,29.4580118 C22.9793712,28.3239519 24.1044214,27.1898919 25.2226941,26.055832 C26.6052858,24.6637225 27.9946549,23.2784037 29.3636919,21.8727127 C30.2718649,20.9287945 30.4413001,19.8083161 29.8991073,18.7896994 C29.695785,18.402625 29.5263497,18.280391 29.2688081,18.4229974 Z" id="icon" fill="#FEFEFE"></path>
            </g>
        </g>
    </g>
</svg>

<svg width="40" height="40" viewBox="0 0 40 40" xmlns="http://www.w3.org/2000/svg" xmlns:xlink="http://www.w3.org/1999/xlink"><title>foursquare_hover</title><defs><path id="a" d="M0 0h40v40H0z"/></defs><g fill="none" fill-rule="evenodd"><g><use fill="#17BBE1" xlink:href="#a"/><use fill-opacity=".25" fill="#000" xlink:href="#a"/></g><path d="M30.238 15.435c.007.278-.17.462-.346.638-3.124 3.158-6.255 6.31-9.373 9.474-.448.448-.855.434-1.29-.007-1.706-1.74-3.42-3.47-5.136-5.21-.427-.427-.386-.834.034-1.242.44-.427.88-.855 1.3-1.31.435-.47.85-.455 1.282-.007.922.945 1.87 1.87 2.78 2.833.318.34.494.292.8-.014 2.276-2.33 4.573-4.64 6.87-6.948.726-.733.93-.726 1.675.02l1.112 1.114c.176.177.31.38.29.66zm-.97 2.988c-2.893 2.92-5.787 5.847-8.68 8.774-.448.448-.855.434-1.29-.007-.168-.17-.33-.34-.5-.51-.075-.06-.15-.122-.217-.19-1.782-1.8-3.57-3.592-5.333-5.405-.82-.85-.793-1.88.034-2.743.462-.476.93-.944 1.404-1.406.95-.937 1.98-.91 2.92.06.638.653 1.302 1.278 1.92 1.95.31.34.494.32.8 0 1.49-1.535 3-3.063 4.533-4.564.318-.312.332-.495.006-.814-1.036-1-2.033-2.03-3.056-3.043-1.118-1.113-2.508-1.14-3.633-.02-2.548 2.546-5.083 5.113-7.604 7.687-1.07 1.093-1.084 2.52-.014 3.606 2.542 2.587 5.09 5.168 7.66 7.728 1.097 1.1 2.54 1.046 3.638-.068 1.125-1.134 2.25-2.268 3.37-3.402 1.38-1.392 2.77-2.778 4.14-4.183.908-.944 1.077-2.065.535-3.083-.204-.387-.374-.51-.63-.367z" fill="#FEFEFE"/></g></svg>
